X: 86
T: Preludium B-dur
C: Maria Szymanowska
%%abc-version 2.0
%%abcx-abcm2ps-target-version 5.9.1 (29 Sep 2008)
%%abc-creator hum2abc beta
%%abcx-conversion-date 2021/10/04 07:38:41
%%abc-edited-by Leszek Kubiak
%%abc-edited-by Berenika Jozajtis
%%abcx-initial-encoding-date 2020-06-16
%%humdrum-veritas 975953063
%%humdrum-veritas-data 4031358221
%%linebreak <none>
%%barnumbers 0
L: 1/16
M: 2/4
N: Derived from pl-kozmzk--mzk-m-31--013_szymanowska-maria--preludium-b-dur.krn
%%staves {1 2}
V: 1 clef=treble
V: 2 clef=bass
K: Bb
[V:1] (3:2:6FdddcB (3:2:6Aeeedc | 
[V:2] !wedge!B,,2!accent![F,2B,2D2] !wedge!C,2!accent![F,2A,2E2] | 
[V:1] (3:2:6Bff!accent!fed (3:2:6cgg!accent!gfe | 
[V:2] D,2[B,2F2] E,2[C2E2] | 
[V:1] (3:2:6dbb!accent!bfd (3:2:6cff!accent!f=e_e | 
[V:2] F,2[B,2D2F2] F,2[A,2C2] | 
[V:1] (3:2:6!accent!dcB!accent!BAG (3:2:6!accent!GFE!accent!EDC | 
[V:2] [F,B,D] z [D,F,B,] z [C,E,F,A,] z [F,,A,,E,] z | 
[V:1] (3B, dd(3dcB (3:2:6Aeeedc | 
[V:2] [B,,2D,2][F,2D2] [C,2F,2][A,2E2] | 
[V:1] (3:2:6Bfffed (3:2:6^cgggf=e | 
[V:2] [D,2B,2][B,2D2F2] [=E,2B,2][^C2G2] | 
[V:1] (3:2:6ff'f'f'd'b (3:2:6ffffec | 
[V:2] F,2[B,2D2F2] F,2[A,2E2] | 
[V:1] (3:2:6BFFFEC B,2 z2 :|]|:  
[V:2] (3D F,F,(3F,E,C, B,,2B,,,2 :|]|:  
[V:1] (3:2:6ffff{/a}!accent!gf (3:2:6ffff{/a}!accent!gf | 
[V:2] [K:clef=treble]F,2[C2E2A2] F,2[D2B2] | 
[V:1] (3:2:6ffff{/a}!accent!gf (3:2:6ffff{/a}!accent!gf | 
[V:2] F,2[C2E2A2] F,2[D2B2] | 
[V:1] (3:2:6gggga=b (3:2:6c'c'c'c'd'e' | 
[V:2] F,2[=B,2D2G2] E,2[C2G2][K:clef=bass] | 
[V:1] (3:2:6d'd'd'd'e'd' c'3!accent!_g | 
[V:2] [F,2_A,2C2D2][G,2=B,2F2][C4E4] | 
[V:1] (3:2:6ffff{/_a}!accent!_gf (3:2:6ffff{/a}!accent!gf | 
[V:2] [K:clef=treble]F,2[C2E2A2] F,2[_D2F2B2] | 
[V:1] (3:2:6ffff{/_a}!accent!_gf (3:2:6ffff{/a}!accent!gf | 
[V:2] F,2[C2E2A2] F,2[_D2F2B2][K:clef=bass] | 
[V:1] (3:2:6ffffg=a (3:2:6bbbbc'_d' | 
[V:2] E,2[K:clef=treble] [C2E2A2][K:clef=bass] _D,2[K:clef=treble] [B,2_D2F2][K:clef=bass] | 
[V:1] (3:2:6c'c'c'c'_d'c' b3!accent!a | 
[V:2] [E,2_G,2B,2C2][F,2A,2E2] [B,2_D2] z2 | 
[V:1] (3:2:6_aaaabc' _d'2-(3d'c'b | 
[V:2] _A,,2[K:clef=treble] [_A,2C2_G2][K:clef=bass] A,,2[K:clef=treble] [A,2_D2F2][K:clef=bass] | 
[V:1] (3:2:6_aaaaba {/a_g}!accent!f4 | 
[V:2] _A,,2[K:clef=treble] [_A,2C2_G2][K:clef=bass] A,,2[K:clef=treble] [A,2_D2F2] | 
[V:1] (3:2:6!wedge!e!wedge!e!wedge!e{/f}!wedge!e!wedge!_d!wedge!e (3!wedge!f!wedge!f!wedge!f!accent!f2 | 
[V:2] _E2[g2c'2] D2[f2d'2] | 
[V:1] (3:2:6=EEE{/F}E=DE (3:2:6!wedge!F!wedge!F!wedge!F!wedge!F!wedge!G!wedge!A | 
[V:2] [K:clef=bass]_G,,2[B,,2=E,2][F,,4A,,4F,4] | 
[V:1] (3:2:6BdddcB (3:2:6Aeeedc | 
[V:2] (3B,,F,B,!accent!D2 (3C,F,A,!accent!E2 | 
[V:1] (3:2:6Bfffed (3:2:6cgggfe | 
[V:2] (3D,F,B,!accent!D2 (3E,CE!accent!G2 | 
[V:1] (3:2:6dbbbfd (3:2:6cfff=e_e | 
[V:2] (3F,B,DF2 (3F,A,CF2 | 
[V:1] (3:2:6dcBBAG (3:2:6GFEEDC | 
[V:2] (3:2:6!accent!F,B,D!accent!D,F,B, (3:2:6!accent!A,,C,E,!accent!F,,A,,E, | 
[V:1] (3B, dd(3dcB (3:2:6Aeeedc | 
[V:2] (3[B,,D,] F,B,(3DB,F, (3:2:6C,F,A,EA,F, | 
[V:1] (3:2:6Bfffed (3:2:6^cbbbag | 
[V:2] (3:2:6D,B,DFDB, (3:2:6=E,B,^CGCB, | 
[V:1] (3:2:6ff'f'f'd'b (3:2:6ffffec | 
[V:2] (3:2:6F,B,DFDB, (3:2:6F,A,EFEA, | 
[V:1] (3:2:6BFFFEC B,2 z2 :|]  
[V:2] (3[B,D] F,F,(3F,E,C, B,,2B,,,2 :|]  
[V:1] [B4d4f4][B4c4g4] | 
[V:2] (3[B,D][K:clef=treble] FF(3FGF (3:2:6=EEEEFE | 
[V:1] [c4f4a4][B4f4b4] | 
[V:2] (3:2:6_EEEEFE (3:2:6DDDDED | 
[V:1] (3[Beg] GA{/c}(3!accent!BAG F z [c2e2a2] | 
[V:2] (3E[K:clef=bass] E,F,(3G,F,E, F, z [F,,2F,2] | 
[V:1] [B4d4b4]!fermata!z4 |]  
[V:2] [B,,,4B,,4]!fermata!z4 |]  


